dist/icons/svgs/location-dot-slash-outline.svg

<svg xmlns="http://www.w3.org/2000/svg" width="24" height="24" fill="currentcolor" class="icon-location-dot-slash-outline" viewBox="0 0 24 24">
  <path d="M2.48459 2.23438L7.01584 5.75C8.3049 3.52344 10.7268 2 13.5002 2C17.6408 2 21.0002 5.35938 21.0002 9.5C21.0002 11.0234 20.1018 13.0547 18.9299 15.0859L25.6096 20.3594C26.0393 20.6719 26.1174 21.2578 25.7658 21.6484C25.4533 22.0781 24.8674 22.1562 24.4768 21.8047L1.35177 3.67969C0.922087 3.36719 0.843962 2.78125 1.19552 2.39062C1.50802 1.96094 2.09396 1.88281 2.48459 2.23438ZM8.50021 6.92188L10.5315 8.52344C10.9611 7.27344 12.094 6.375 13.5002 6.375C15.219 6.375 16.6252 7.78125 16.6252 9.5C16.6252 10.6328 16.0393 11.6094 15.1799 12.1562L17.4065 13.9141C17.8361 13.1719 18.2268 12.4297 18.5002 11.7656C18.9299 10.75 19.1252 10.0078 19.1252 9.5C19.1252 6.41406 16.5861 3.875 13.5002 3.875C11.3127 3.875 9.43771 5.125 8.50021 6.92188ZM13.4221 10.75C13.4221 10.75 13.4611 10.75 13.5002 10.75C14.1643 10.75 14.7502 10.2031 14.7502 9.5C14.7502 8.83594 14.1643 8.25 13.5002 8.25C12.7971 8.25 12.2502 8.83594 12.2502 9.5C12.2502 9.65625 12.2502 9.77344 12.2893 9.89062L13.4221 10.75ZM8.46115 11.7656C8.85177 12.7031 9.43771 13.7969 10.1018 14.8516C11.2346 16.6875 12.5236 18.4062 13.4611 19.6562C14.0471 18.9531 14.7111 18.0547 15.3752 17.1172L16.8596 18.25C15.9221 19.5781 15.0236 20.7109 14.3986 21.5312C13.9299 22.1172 13.0315 22.1172 12.5627 21.5312C10.5705 19.0703 6.15646 13.1719 6.00021 9.69531L8.38302 11.6094C8.42209 11.6484 8.42209 11.6875 8.46115 11.7656Z"/>
</svg>

<svg xmlns="http://www.w3.org/2000/svg" width="24" height="24" fill="currentColor" class="icon-location-dot-slash-outline" viewBox="0 0 24 24">
  <path d="m2.485 2.234 4.53 3.516A7.5 7.5 0 0 1 13.5 2C17.64 2 21 5.36 21 9.5c0 1.523-.898 3.555-2.07 5.586l6.68 5.273c.43.313.507.899.156 1.29-.313.43-.899.507-1.29.156L1.353 3.68c-.43-.313-.508-.899-.156-1.29.312-.43.898-.507 1.289-.156M8.5 6.922l2.031 1.601c.43-1.25 1.563-2.148 2.97-2.148A3.134 3.134 0 0 1 16.624 9.5c0 1.133-.586 2.11-1.445 2.656l2.227 1.758c.43-.742.82-1.484 1.093-2.148.43-1.016.625-1.758.625-2.266 0-3.086-2.539-5.625-5.625-5.625-2.187 0-4.062 1.25-5 3.047m4.922 3.828h.078c.664 0 1.25-.547 1.25-1.25 0-.664-.586-1.25-1.25-1.25-.703 0-1.25.586-1.25 1.25 0 .156 0 .273.04.39zm-4.96 1.016c.39.937.976 2.03 1.64 3.086 1.133 1.835 2.422 3.554 3.36 4.804.585-.703 1.25-1.601 1.913-2.539l1.485 1.133c-.938 1.328-1.836 2.46-2.461 3.281a1.178 1.178 0 0 1-1.836 0C10.57 19.071 6.156 13.171 6 9.695l2.383 1.914c.04.04.04.079.078.157"/>
</svg>
